assets/icons/qvision/next_week.svg

<svg xmlns="http://www.w3.org/2000/svg" enable-background="new 0 0 24 24" height="24" viewBox="0 0 24 24" width="24"><g><rect fill="none" height="24" width="24" x="0"/></g><g><g><g><path d="M20,7h-4V5c0-0.55-0.22-1.05-0.59-1.41C15.05,3.22,14.55,3,14,3h-4C8.9,3,8,3.9,8,5v2H4C2.9,7,2,7.9,2,9v11 c0,1.1,0.9,2,2,2h16c1.1,0,2-0.9,2-2V9C22,7.9,21.1,7,20,7z M10,5h4v2h-4V5z M11,18.5l-1-1l3-3l-3-3l1-1l4,4L11,18.5z"/></g></g></g></svg>

<svg width="24" height="24" viewBox="0 0 24 24" fill="none" xmlns="http://www.w3.org/2000/svg">
<g clip-path="url(#clip0_147_2203)">
<path d="M20 7H16V5C16 4.45 15.78 3.95 15.41 3.59C15.05 3.22 14.55 3 14 3H10C8.9 3 8 3.9 8 5V7H4C2.9 7 2 7.9 2 9V20C2 21.1 2.9 22 4 22H20C21.1 22 22 21.1 22 20V9C22 7.9 21.1 7 20 7ZM10 5H14V7H10V5ZM11 18.5L10 17.5L13 14.5L10 11.5L11 10.5L15 14.5L11 18.5Z" fill="#323232"/>
</g>
<defs>
<clipPath id="clip0_147_2203">
<rect width="24" height="24" fill="white"/>
</clipPath>
</defs>
</svg>
